X: 3226
M: 6/8
L: 1/8
K: A
|:\
vA3 c3 | BAB cAF | EFG A2f |\
[1 edc cBA :|[2 edc B2A ||\
cde ef=g | fdf ecA |\
cde ef=g | fdf a3 |\
EFG A2f | edc B2A |]


